apps/48/gnome-session-switch.svg

<?xml version="1.0" encoding="UTF-8" standalone="no"?>
<!-- Created with Inkscape (http://www.inkscape.org/) -->

<svg
   xmlns:svg="http://www.w3.org/2000/svg"
   xmlns="http://www.w3.org/2000/svg"
   xmlns:xlink="http://www.w3.org/1999/xlink"
   version="1.1"
   width="48"
   height="48"
   id="svg2442">
  <defs
     id="defs2444">
    <linearGradient
       id="linearGradient3480">
      <stop
         id="stop3482"
         style="stop-color:#548820;stop-opacity:1"
         offset="0" />
      <stop
         id="stop3484"
         style="stop-color:#548820;stop-opacity:0"
         offset="1" />
    </linearGradient>
    <linearGradient
       x1="40.808029"
       y1="44.845047"
       x2="40.808029"
       y2="26.149443"
       id="linearGradient2516"
       xlink:href="#linearGradient3480"
       gradientUnits="userSpaceOnUse"
       gradientTransform="matrix(0,-2.9226076,2.9518257,0,-41.683484,160.59707)" />
    <linearGradient
       id="linearGradient3793">
      <stop
         id="stop3795"
         style="stop-color:#8cab2a;stop-opacity:0"
         offset="0" />
      <stop
         id="stop3797"
         style="stop-color:#b1c948;stop-opacity:1"
         offset="0.6127364" />
      <stop
         id="stop3799"
         style="stop-color:#d7e866;stop-opacity:1"
         offset="1" />
    </linearGradient>
    <linearGradient
       x1="62.952984"
       y1="23.890968"
       x2="2.4973762"
       y2="23.890968"
       id="linearGradient2514"
       xlink:href="#linearGradient3793"
       gradientUnits="userSpaceOnUse"
       gradientTransform="matrix(-1.4862123,0,0,1.4715013,129.06661,6.1756237)" />
    <linearGradient
       x1="3.8877637"
       y1="26.022909"
       x2="-8.7979088"
       y2="26.022909"
       id="linearGradient2511"
       xlink:href="#linearGradient4222"
       gradientUnits="userSpaceOnUse"
       gradientTransform="matrix(1.6727172,0,0,1.567355,52.821794,-0.5347054)" />
    <linearGradient
       id="linearGradient5432">
      <stop
         id="stop5434"
         style="stop-color:#a65612;stop-opacity:1"
         offset="0" />
      <stop
         id="stop5436"
         style="stop-color:#a65612;stop-opacity:0"
         offset="1" />
    </linearGradient>
    <linearGradient
       x1="41.81702"
       y1="45.610001"
       x2="41.81702"
       y2="26.597807"
       id="linearGradient3836"
       xlink:href="#linearGradient5432"
       gradientUnits="userSpaceOnUse"
       gradientTransform="matrix(0,-2.9226076,-2.9518257,0,169.75111,208.64009)" />
    <linearGradient
       id="linearGradient3840">
      <stop
         id="stop3842"
         style="stop-color:#eda606;stop-opacity:1"
         offset="0" />
      <stop
         id="stop3844"
         style="stop-color:#efb220;stop-opacity:1"
         offset="0.31757474" />
      <stop
         id="stop3846"
         style="stop-color:#f1be3b;stop-opacity:0"
         offset="1" />
    </linearGradient>
    <linearGradient
       x1="3.8738406"
       y1="28.280676"
       x2="62.400131"
       y2="28.280676"
       id="linearGradient3834"
       xlink:href="#linearGradient3840"
       gradientUnits="userSpaceOnUse"
       gradientTransform="matrix(1.4862123,0,0,1.4715013,-0.998984,54.21865)" />
    <linearGradient
       id="linearGradient4222">
      <stop
         id="stop4224"
         style="stop-color:white;stop-opacity:1"
         offset="0" />
      <stop
         id="stop4226"
         style="stop-color:white;stop-opacity:0"
         offset="1" />
    </linearGradient>
    <linearGradient
       x1="3.8877637"
       y1="26.022909"
       x2="-8.7979088"
       y2="26.022909"
       id="linearGradient3831"
       xlink:href="#linearGradient4222"
       gradientUnits="userSpaceOnUse"
       gradientTransform="matrix(-1.6727172,0,0,1.567355,75.245828,47.508321)" />
  </defs>
  <g
     id="layer1">
    <path
       d="M 92.008625,9.3282083 126.34517,39.99775 92.008625,70.667292 l 0,-16.0015 -55.671887,0 0,-29.336084 55.671887,0 0,-16.0014997 z"
       transform="matrix(0.3749648,0,0,0.3749648,0,0.00224979)"
       id="path4348"
       style="fill:url(#linearGradient2514);fill-opacity:1;fill-rule:nonzero;stroke:url(#linearGradient2516);stroke-width:2.66691661;stroke-linecap:round;stroke-linejoin:round;stroke-miterlimit:4;stroke-opacity:1;stroke-dasharray:none;stroke-dashoffset:0;marker:none;visibility:visible;display:inline;overflow:visible" />
    <path
       d="m 94.675542,15.641691 27.565128,24.356059 -27.565128,24.648646 0,-12.647521 -55.576261,0 -0.161406,-24.00225 55.737667,0 0,-12.354934 z"
       transform="matrix(0.3749648,0,0,0.3749648,0,0.00224979)"
       id="path4360"
       style="opacity:0.35400008;fill:none;stroke:url(#linearGradient2511);stroke-width:2.66691661;stroke-linecap:butt;stroke-linejoin:miter;stroke-miterlimit:4;stroke-opacity:1;stroke-dasharray:none;stroke-dashoffset:0;marker:none;visibility:visible;display:inline;overflow:visible" />
    <path
       d="m 36.059001,57.371236 -34.336545,30.669541 34.336545,30.669543 0,-16.0015 55.671887,0 0,-29.336085 -55.671887,0 0,-16.001499 z"
       transform="matrix(0.3749648,0,0,0.3749648,0,0.00224979)"
       id="path3801"
       style="fill:url(#linearGradient3834);fill-opacity:1;fill-rule:nonzero;stroke:url(#linearGradient3836);stroke-width:2.66691661;stroke-linecap:round;stroke-linejoin:round;stroke-miterlimit:4;stroke-opacity:1;stroke-dasharray:none;stroke-dashoffset:0;marker:none;visibility:visible;display:inline;overflow:visible" />
    <path
       d="m 33.392084,63.684717 -27.565128,24.35606 27.565128,24.648643 0,-12.64752 55.576264,0 0.1614,-24.002248 -55.737664,0 0,-12.354935 z"
       transform="matrix(0.3749648,0,0,0.3749648,0,0.00224979)"
       id="path3803"
       style="opacity:0.35400008;fill:none;stroke:url(#linearGradient3831);stroke-width:2.66691661;stroke-linecap:butt;stroke-linejoin:miter;stroke-miterlimit:4;stroke-opacity:1;stroke-dasharray:none;stroke-dashoffset:0;marker:none;visibility:visible;display:inline;overflow:visible" />
  </g>
</svg>

<?xml version="1.0" encoding="UTF-8" standalone="no"?>
<!-- Created with Inkscape (http://www.inkscape.org/) -->
<svg
   xmlns:dc="http://purl.org/dc/elements/1.1/"
   xmlns:cc="http://creativecommons.org/ns#"
   xmlns:rdf="http://www.w3.org/1999/02/22-rdf-syntax-ns#"
   xmlns:svg="http://www.w3.org/2000/svg"
   xmlns="http://www.w3.org/2000/svg"
   xmlns:xlink="http://www.w3.org/1999/xlink"
   xmlns:sodipodi="http://sodipodi.sourceforge.net/DTD/sodipodi-0.dtd"
   xmlns:inkscape="http://www.inkscape.org/namespaces/inkscape"
   width="48px"
   height="48px"
   id="svg2442"
   sodipodi:version="0.32"
   inkscape:version="0.46"
   sodipodi:docname="gnome-session-switch.svg"
   inkscape:output_extension="org.inkscape.output.svg.inkscape">
  <defs
     id="defs2444">
    <linearGradient
       id="linearGradient3480">
      <stop
         id="stop3482"
         offset="0"
         style="stop-color:#548820;stop-opacity:1" />
      <stop
         id="stop3484"
         offset="1"
         style="stop-color:#548820;stop-opacity:0;" />
    </linearGradient>
    <linearGradient
       inkscape:collect="always"
       xlink:href="#linearGradient3480"
       id="linearGradient2516"
       gradientUnits="userSpaceOnUse"
       x1="40.808029"
       y1="44.845047"
       x2="40.808029"
       y2="26.149443"
       gradientTransform="matrix(0,-2.9226076,2.9518257,0,-41.683484,160.59707)" />
    <linearGradient
       id="linearGradient3793">
      <stop
         id="stop3795"
         offset="0"
         style="stop-color:#8cab2a;stop-opacity:0;" />
      <stop
         style="stop-color:#b1c948;stop-opacity:1;"
         offset="0.6127364"
         id="stop3797" />
      <stop
         id="stop3799"
         offset="1"
         style="stop-color:#d7e866;stop-opacity:1;" />
    </linearGradient>
    <linearGradient
       inkscape:collect="always"
       xlink:href="#linearGradient3793"
       id="linearGradient2514"
       gradientUnits="userSpaceOnUse"
       gradientTransform="matrix(-1.4862123,0,0,1.4715013,129.06661,6.1756237)"
       x1="62.952984"
       y1="23.890968"
       x2="2.4973762"
       y2="23.890968" />
    <linearGradient
       inkscape:collect="always"
       xlink:href="#linearGradient4222"
       id="linearGradient2511"
       gradientUnits="userSpaceOnUse"
       gradientTransform="matrix(1.6727172,0,0,1.567355,52.821794,-0.5347054)"
       x1="3.8877637"
       y1="26.022909"
       x2="-8.7979088"
       y2="26.022909" />
    <linearGradient
       id="linearGradient5432">
      <stop
         id="stop5434"
         offset="0"
         style="stop-color:#a65612;stop-opacity:1;" />
      <stop
         id="stop5436"
         offset="1"
         style="stop-color:#a65612;stop-opacity:0;" />
    </linearGradient>
    <linearGradient
       inkscape:collect="always"
       xlink:href="#linearGradient5432"
       id="linearGradient3836"
       gradientUnits="userSpaceOnUse"
       gradientTransform="matrix(0,-2.9226076,-2.9518257,0,169.75111,208.64009)"
       x1="41.81702"
       y1="45.610001"
       x2="41.81702"
       y2="26.597807" />
    <linearGradient
       id="linearGradient3840">
      <stop
         style="stop-color:#eda606;stop-opacity:1;"
         offset="0"
         id="stop3842" />
      <stop
         id="stop3844"
         offset="0.31757474"
         style="stop-color:#efb220;stop-opacity:1;" />
      <stop
         style="stop-color:#f1be3b;stop-opacity:0;"
         offset="1"
         id="stop3846" />
    </linearGradient>
    <linearGradient
       inkscape:collect="always"
       xlink:href="#linearGradient3840"
       id="linearGradient3834"
       gradientUnits="userSpaceOnUse"
       gradientTransform="matrix(1.4862123,0,0,1.4715013,-0.998984,54.21865)"
       x1="3.8738406"
       y1="28.280676"
       x2="62.400131"
       y2="28.280676" />
    <linearGradient
       id="linearGradient4222">
      <stop
         style="stop-color:#ffffff;stop-opacity:1;"
         offset="0"
         id="stop4224" />
      <stop
         style="stop-color:#ffffff;stop-opacity:0;"
         offset="1"
         id="stop4226" />
    </linearGradient>
    <linearGradient
       inkscape:collect="always"
       xlink:href="#linearGradient4222"
       id="linearGradient3831"
       gradientUnits="userSpaceOnUse"
       gradientTransform="matrix(-1.6727172,0,0,1.567355,75.245828,47.508321)"
       x1="3.8877637"
       y1="26.022909"
       x2="-8.7979088"
       y2="26.022909" />
  </defs>
  <sodipodi:namedview
     id="base"
     pagecolor="#ffffff"
     bordercolor="#666666"
     borderopacity="1.0"
     inkscape:pageopacity="0.0"
     inkscape:pageshadow="2"
     inkscape:zoom="7"
     inkscape:cx="24"
     inkscape:cy="24"
     inkscape:current-layer="layer1"
     showgrid="true"
     inkscape:grid-bbox="true"
     inkscape:document-units="px"
     inkscape:window-width="640"
     inkscape:window-height="720"
     inkscape:window-x="0"
     inkscape:window-y="89" />
  <metadata
     id="metadata2447">
    <rdf:RDF>
      <cc:Work
         rdf:about="">
        <dc:format>image/svg+xml</dc:format>
        <dc:type
           rdf:resource="http://purl.org/dc/dcmitype/StillImage" />
      </cc:Work>
    </rdf:RDF>
  </metadata>
  <g
     id="layer1"
     inkscape:label="Layer 1"
     inkscape:groupmode="layer">
    <path
       transform="matrix(0.3749648,0,0,0.3749648,0,2.2497891e-3)"
       sodipodi:nodetypes="cccccccc"
       style="overflow:visible;fill:url(#linearGradient2514);fill-opacity:1;fill-rule:nonzero;stroke:url(#linearGradient2516);stroke-width:2.66691666999999999;stroke-linecap:round;stroke-linejoin:round;marker:none;marker-start:none;marker-mid:none;marker-end:none;stroke-miterlimit:4;stroke-dasharray:none;stroke-dashoffset:0;stroke-opacity:1;visibility:visible;display:inline"
       d="M 92.008625,9.3282083 L 126.34517,39.99775 L 92.008625,70.667292 L 92.008625,54.665792 L 36.336738,54.665792 L 36.336738,25.329708 L 92.008625,25.329708 L 92.008625,9.3282083 z"
       id="path4348" />
    <path
       transform="matrix(0.3749648,0,0,0.3749648,0,2.2497891e-3)"
       sodipodi:nodetypes="cccccccc"
       style="overflow:visible;opacity:0.35400002000000003;fill:none;fill-opacity:1;fill-rule:nonzero;stroke:url(#linearGradient2511);stroke-width:2.66691666999999999;stroke-linecap:butt;stroke-linejoin:miter;marker:none;marker-start:none;marker-mid:none;marker-end:none;stroke-miterlimit:4;stroke-dasharray:none;stroke-dashoffset:0;stroke-opacity:1;visibility:visible;display:inline"
       d="M 94.675542,15.641691 L 122.24067,39.99775 L 94.675542,64.646396 L 94.675542,51.998875 L 39.099281,51.998875 L 38.937875,27.996625 L 94.675542,27.996625 L 94.675542,15.641691 z"
       id="path4360" />
    <path
       transform="matrix(0.3749648,0,0,0.3749648,0,2.2497891e-3)"
       sodipodi:nodetypes="cccccccc"
       style="overflow:visible;fill:url(#linearGradient3834);fill-opacity:1;fill-rule:nonzero;stroke:url(#linearGradient3836);stroke-width:2.66691660999999991;stroke-linecap:round;stroke-linejoin:round;marker:none;marker-start:none;marker-mid:none;marker-end:none;stroke-miterlimit:4;stroke-dasharray:none;stroke-dashoffset:0;stroke-opacity:1;visibility:visible;display:inline"
       d="M 36.059001,57.371236 L 1.722456,88.040777 L 36.059001,118.71032 L 36.059001,102.70882 L 91.730888,102.70882 L 91.730888,73.372735 L 36.059001,73.372735 L 36.059001,57.371236 z"
       id="path3801" />
    <path
       transform="matrix(0.3749648,0,0,0.3749648,0,2.2497891e-3)"
       sodipodi:nodetypes="cccccccc"
       style="overflow:visible;opacity:0.35400002000000003;fill:none;fill-opacity:1;fill-rule:nonzero;stroke:url(#linearGradient3831);stroke-width:2.66691660999999991;stroke-linecap:butt;stroke-linejoin:miter;marker:none;marker-start:none;marker-mid:none;marker-end:none;stroke-miterlimit:4;stroke-dasharray:none;stroke-dashoffset:0;stroke-opacity:1;visibility:visible;display:inline"
       d="M 33.392084,63.684717 L 5.826956,88.040777 L 33.392084,112.68942 L 33.392084,100.0419 L 88.968348,100.0419 L 89.129748,76.039652 L 33.392084,76.039652 L 33.392084,63.684717 z"
       id="path3803" />
  </g>
</svg>
